assets/dashboard/img/actions/historic.svg

<svg enable-background="new 0 0 105 128" height="128" viewBox="0 0 105 128" width="105" xmlns="http://www.w3.org/2000/svg"><path d="m105 32.578v83.109c0 6.789-5.525 12.312-12.316 12.312h-56.194c-6.791 0-12.315-5.522-12.315-12.312v-48.039c1.756.291 3.549.479 5.388.479 1.305 0 3.584-.096 4.85-.245v46.805c0 1.696 1.381 3.078 3.08 3.078h54.19c1.697 0 3.08-1.382 3.08-3.078v-81.109c0-1.697-1.383-3.078-3.08-3.078h-25.479c0-3.211-.479-7.305-1.347-10.233h27.826c6.792-.002 12.317 5.522 12.317 12.311zm-75.951 25.5c-16.018 0-29.049-13.025-29.049-29.039 0-16.013 13.031-29.039 29.049-29.039 16.017 0 29.049 13.026 29.049 29.039 0 16.014-13.033 29.039-29.049 29.039zm0-8.156c12.621 0 20.889-8.264 20.889-20.883s-8.268-20.883-20.889-20.883c-12.623 0-20.891 8.262-20.891 20.883 0 12.619 8.269 20.883 20.891 20.883zm15.183-16.233c1.962 0 3.557-1.592 3.557-3.555s-1.594-3.555-3.557-3.555h-12.562v-11.954c0-1.961-1.592-3.555-3.555-3.555s-3.556 1.592-3.556 3.555v15.51c0 1.962 1.593 3.555 3.556 3.555zm37.446 21.964h-33.356c-1.699 0-3.078 2.017-3.078 4.5 0 2.484 1.379 4.5 3.078 4.5h33.355c1.701 0 3.078-2.015 3.078-4.5.003-2.485-1.376-4.5-3.077-4.5zm0 19.296h-33.356c-1.699 0-3.078 2.016-3.078 4.5s1.379 4.5 3.078 4.5h33.355c1.701 0 3.078-2.016 3.078-4.5.003-2.484-1.376-4.5-3.077-4.5zm0 19.399h-33.356c-1.699 0-3.078 2.016-3.078 4.5 0 2.482 1.379 4.5 3.078 4.5h33.355c1.701 0 3.078-2.018 3.078-4.5.003-2.487-1.376-4.5-3.077-4.5z" fill="#3e4b5b"/></svg>

<?xml version="1.0" encoding="utf-8"?>
<!DOCTYPE svg PUBLIC "-//W3C//DTD SVG 1.1//EN" "http://www.w3.org/Graphics/SVG/1.1/DTD/svg11.dtd">
<svg version="1.1" id="Capa_1" xmlns="http://www.w3.org/2000/svg" xmlns:xlink="http://www.w3.org/1999/xlink" x="0px" y="0px"
	 width="105px" height="128px" viewBox="0 0 105 128" enable-background="new 0 0 105 128" xml:space="preserve">
<g>
	<path fill="#3E4B5B" d="M105,32.578v83.109c0,6.79-5.525,12.312-12.317,12.312H36.49c-6.791,0-12.315-5.522-12.315-12.312V67.648
		c1.756,0.292,3.549,0.48,5.388,0.48c1.305,0,3.584-0.096,4.85-0.245v46.804c0,1.697,1.381,3.079,3.08,3.079h54.191
		c1.697,0,3.079-1.382,3.079-3.079V33.578c0-1.697-1.382-3.078-3.079-3.078h-25.48c0-3.211-0.48-7.305-1.347-10.233h27.827
		C99.475,20.265,105,25.789,105,32.578z M29.049,58.078C13.031,58.078,0,45.053,0,29.039C0,13.026,13.031,0,29.049,0
		c16.017,0,29.048,13.026,29.048,29.039C58.097,45.053,45.065,58.078,29.049,58.078z M29.049,49.922
		c12.621,0,20.889-8.264,20.889-20.883S41.67,8.156,29.049,8.156c-12.623,0-20.891,8.262-20.891,20.883
		C8.158,41.658,16.427,49.922,29.049,49.922z M44.232,33.689c1.962,0,3.557-1.592,3.557-3.555s-1.594-3.555-3.557-3.555H31.67
		V14.625c0-1.961-1.592-3.555-3.555-3.555s-3.556,1.592-3.556,3.555v15.51c0,1.962,1.593,3.555,3.556,3.555H44.232L44.232,33.689z
		 M81.678,55.653H48.322c-1.699,0-3.078,2.017-3.078,4.5c0,2.484,1.379,4.5,3.078,4.5h33.355c1.701,0,3.078-2.016,3.078-4.5
		C84.758,57.668,83.379,55.653,81.678,55.653z M81.678,74.949H48.322c-1.699,0-3.078,2.016-3.078,4.5s1.379,4.5,3.078,4.5h33.355
		c1.701,0,3.078-2.016,3.078-4.5C84.758,76.965,83.379,74.949,81.678,74.949z M81.678,94.347H48.322c-1.699,0-3.078,2.016-3.078,4.5
		c0,2.483,1.379,4.5,3.078,4.5h33.355c1.701,0,3.078-2.017,3.078-4.5C84.758,96.362,83.379,94.347,81.678,94.347z"/>
</g>
</svg>
